App/Icons/control_skip.svg

<?xml version="1.0" encoding="UTF-8" standalone="no"?>
<svg
   version="1.1"
   id="Capa_1"
   x="0px"
   y="0px"
   viewBox="0 0 64 64"
   xml:space="preserve"
   sodipodi:docname="control_skip.svg"
   inkscape:version="1.1 (c4e8f9ed74, 2021-05-24)"
   width="64"
   height="64"
   xmlns:inkscape="http://www.inkscape.org/namespaces/inkscape"
   xmlns:sodipodi="http://sodipodi.sourceforge.net/DTD/sodipodi-0.dtd"
   xmlns="http://www.w3.org/2000/svg"
   xmlns:svg="http://www.w3.org/2000/svg"
   xmlns:rdf="http://www.w3.org/1999/02/22-rdf-syntax-ns#"
   xmlns:cc="http://creativecommons.org/ns#"
   xmlns:dc="http://purl.org/dc/elements/1.1/"><metadata
   id="metadata39"><rdf:RDF><cc:Work
       rdf:about=""><dc:format>image/svg+xml</dc:format><dc:type
         rdf:resource="http://purl.org/dc/dcmitype/StillImage" /></cc:Work></rdf:RDF></metadata><defs
   id="defs37" /><sodipodi:namedview
   pagecolor="#ffffff"
   bordercolor="#666666"
   borderopacity="1"
   objecttolerance="10"
   gridtolerance="10"
   guidetolerance="10"
   inkscape:pageopacity="0"
   inkscape:pageshadow="2"
   inkscape:window-width="1920"
   inkscape:window-height="1056"
   id="namedview35"
   showgrid="false"
   inkscape:pagecheckerboard="true"
   inkscape:zoom="14.116667"
   inkscape:cx="30.035418"
   inkscape:cy="29.999999"
   inkscape:window-x="0"
   inkscape:window-y="0"
   inkscape:window-maximized="1"
   inkscape:current-layer="Capa_1" />
<path
   d="M 32,4 C 16.5608,4 4,16.5608 4,32 4,47.4392 16.5608,60 32,60 47.4392,60 60,47.4392 60,32 60,16.5608 47.4392,4 32,4 Z m 7.0588,28.770933 -20.533333,14 c -0.157734,0.107334 -0.3416,0.1624 -0.525467,0.1624 -0.149333,0 -0.2996,-0.03547 -0.435867,-0.108266 C 17.258,46.6636 17.066667,46.346267 17.066667,46 V 18 c 0,-0.346267 0.191333,-0.6636 0.497466,-0.825067 0.3052,-0.1624 0.675734,-0.14 0.962267,0.05413 l 20.533333,14 c 0.253867,0.1736 0.406934,0.462 0.406934,0.770933 0,0.308933 -0.153067,0.597333 -0.407867,0.770933 z m 8.807867,14.1624 H 41.333333 V 17.066667 h 6.533334 z"
   id="path2"
   style="fill:#ffffff;stroke-width:0.933333" />
<g
   id="g4">
</g>
<g
   id="g6">
</g>
<g
   id="g8">
</g>
<g
   id="g10">
</g>
<g
   id="g12">
</g>
<g
   id="g14">
</g>
<g
   id="g16">
</g>
<g
   id="g18">
</g>
<g
   id="g20">
</g>
<g
   id="g22">
</g>
<g
   id="g24">
</g>
<g
   id="g26">
</g>
<g
   id="g28">
</g>
<g
   id="g30">
</g>
<g
   id="g32">
</g>
</svg>

<?xml version="1.0" encoding="UTF-8"?>
<svg id="Capa_1" width="64" height="64" version="1.1" viewBox="0 0 64 64" xml:space="preserve" xmlns="http://www.w3.org/2000/svg" xmlns:cc="http://creativecommons.org/ns#" xmlns:dc="http://purl.org/dc/elements/1.1/" xmlns:rdf="http://www.w3.org/1999/02/22-rdf-syntax-ns#"><metadata id="metadata39"><rdf:RDF><cc:Work rdf:about=""><dc:format>image/svg+xml</dc:format><dc:type rdf:resource="http://purl.org/dc/dcmitype/StillImage"/></cc:Work></rdf:RDF></metadata>
<path id="path2" d="m32 4c-15.439 0-28 12.561-28 28s12.561 28 28 28 28-12.561 28-28-12.561-28-28-28zm9.334 13.066h6.5332v29.867h-6.5332v-29.867zm-23.281 0.001953c0.1666 0.009567 0.33134 0.063092 0.47461 0.16016l20.533 14c0.25387 0.1736 0.40625 0.46255 0.40625 0.77148s-0.1534 0.59788-0.4082 0.77148l-20.533 14c-0.15773 0.10733-0.34152 0.16211-0.52539 0.16211-0.14933 0-0.29928-0.036575-0.43555-0.10938-0.30613-0.16147-0.49805-0.47795-0.49805-0.82422v-28c0-0.34627 0.19191-0.66275 0.49805-0.82422 0.1526-0.0812 0.32168-0.11699 0.48828-0.10742z" fill="#fff"/>















</svg>
